X: 42826
T: Wideford Hill
R: waltz
M: 3/4
K: Dminor
d2 e2 f2|a2 g2 f2|e2 d2 e2|A6|d3 d e2|e2 f/e/d/e/ c2|d6|
ag fe fe|d3 f B2|A4 F2|E3 F HD2|f2 f2 f2|f2 a2 e2|fB dB HA2|A2 A2 A2|
^G4 ec|=B2 A4||d2 e2 f2|a2 g2 f2|e2 d2 e2|A6|d3 d e2|
e2 f/e/d/e/ c2|d6|ag fe fe|d3 f B2|A4 F2|E3 FH D2||

